assets/home-tab/Asset/profile.svg

<svg width="24" height="24" viewBox="0 0 24 24" fill="none" xmlns="http://www.w3.org/2000/svg">
<circle cx="11.9993" cy="7.21217" r="3.06178" fill="#2F4B6A"/>
<path d="M5.19861 17.6756C5.58368 14.2099 8.51303 11.588 12 11.588C15.487 11.588 18.4163 14.2099 18.8014 17.6756L18.8231 17.8706C18.8238 17.8769 18.822 17.8611 18.8226 17.867C18.9152 18.7542 18.2687 19.6138 17.3907 19.7711C17.3849 19.7721 17.4535 19.7603 17.4261 19.765C13.6667 20.4124 10.26 20.4448 6.55186 19.7785C6.52058 19.7729 6.59878 19.7869 6.59105 19.7854C5.72704 19.6222 5.0858 18.763 5.17504 17.8883C5.17584 17.8804 5.17417 17.8955 5.17484 17.8895L5.19861 17.6756Z" fill="#2F4B6A"/>
</svg>

<svg xmlns="http://www.w3.org/2000/svg" width="24" height="24" fill="none" viewBox="0 0 24 24"><circle cx="11.999" cy="7.212" r="3.062" fill="#2f4b6a"/><path fill="#2f4b6a" d="M5.199 17.676a6.843 6.843 0 0 1 13.602 0l.022.195v-.004c.092.887-.554 1.747-1.432 1.904l.035-.006c-3.76.647-7.166.68-10.874.014-.031-.006.047.008.04.006-.865-.163-1.506-1.022-1.417-1.897v.002z"/></svg>
